public/assets/infra-icon.svg

<svg width="50" height="50" viewBox="0 0 50 50" fill="none" xmlns="http://www.w3.org/2000/svg">
<path d="M35.1111 41.5339L37.0809 41.5339C38.3942 41.5339 39.4711 40.457 39.4711 39.1438C39.4711 37.8305 38.3942 36.7536 37.0809 36.7536L35.1111 36.7536L35.1111 28.305L25.822 28.305L25.822 30.1348C25.822 31.4481 24.7451 32.525 23.4318 32.525C22.1186 32.525 21.0417 31.4481 21.0417 30.1348L21.0417 28.305L11.4725 28.305L11.4725 35.8081C11.6651 35.8081 11.8489 35.8081 12.0415 35.8606C12.2779 35.8694 12.4968 35.9307 12.7157 36.0095C12.7332 36.0095 12.7507 36.0182 12.777 36.027C12.9083 36.027 13.0484 36.0095 13.1797 36.0007C13.635 35.9132 14.0902 35.9131 14.5455 36.0357C14.7819 36.132 15.027 36.2371 15.2634 36.3421C15.7187 36.6048 16.0776 36.9638 16.3403 37.419C16.4453 37.6554 16.5416 37.9005 16.6467 38.1369C16.7693 38.5397 16.7868 38.9336 16.6992 39.3364C16.6817 39.7391 16.5591 40.1068 16.3403 40.457C16.1477 40.8072 15.8938 41.0874 15.5698 41.2975C15.2809 41.5601 14.9395 41.744 14.5455 41.8316C14.1165 41.9016 13.6787 41.9629 13.241 42.0154C13.0571 42.0417 12.8645 42.0504 12.6807 42.0504C12.2779 42.0504 11.8752 41.9891 11.4812 41.9103L11.4812 50L35.1111 50L35.1111 41.5339Z" fill="#A7C553"/>
<path d="M25.7607 28.0074L34.2093 28.0074L34.2093 18.7183L36.1792 18.7183C37.4924 18.7183 38.5693 17.6414 38.5693 16.3281C38.5693 15.0149 37.4924 13.938 36.1792 13.938L34.2093 13.938L34.2093 4.36001L25.7607 4.36001L25.7607 2.39012C25.7607 1.07687 24.6838 -6.46371e-07 23.3706 -7.03776e-07C22.0573 -7.6118e-07 20.9804 1.07687 20.9804 2.39012L20.9804 4.36001L12.5318 4.36001L12.5318 14.6209C14.2916 14.0256 16.6292 14.9273 16.6292 17.3437C16.6292 19.7601 14.2916 20.6619 12.5318 20.0665L12.5318 28.0161L20.9804 28.0161L20.9804 29.986C20.9804 31.2992 22.0573 32.3761 23.3706 32.3761C24.6838 32.3761 25.7607 31.2992 25.7607 29.986L25.7607 28.0074Z" fill="#006D68"/>
</svg>

<svg xmlns="http://www.w3.org/2000/svg" width="50" height="50" fill="none" viewBox="0 0 50 50"><path fill="#a7c553" d="M35.111 41.534h1.97a2.4 2.4 0 0 0 2.39-2.39 2.4 2.4 0 0 0-2.39-2.39h-1.97v-8.449h-9.289v1.83a2.4 2.4 0 0 1-2.39 2.39 2.4 2.4 0 0 1-2.39-2.39v-1.83h-9.57v7.503c.193 0 .377 0 .57.053.236.008.455.07.674.149q.024.002.061.017c.131 0 .271-.017.403-.026a3 3 0 0 1 1.366.035c.236.096.481.201.717.306a2.9 2.9 0 0 1 1.077 1.077c.105.236.202.482.307.718.122.403.14.797.052 1.2a2.26 2.26 0 0 1-.359 1.12c-.192.35-.446.63-.77.84-.29.263-.63.447-1.024.535q-.646.104-1.305.183a4 4 0 0 1-.56.035c-.403 0-.806-.06-1.2-.14V50h23.63z"/><path fill="#006d68" d="M25.76 28.007h8.45v-9.289h1.97a2.4 2.4 0 0 0 2.39-2.39 2.4 2.4 0 0 0-2.39-2.39h-1.97V4.36h-8.45V2.39A2.4 2.4 0 0 0 23.37 0a2.4 2.4 0 0 0-2.39 2.39v1.97h-8.448v10.26c1.76-.594 4.097.307 4.097 2.724 0 2.416-2.337 3.318-4.097 2.723v7.95h8.448v1.969a2.4 2.4 0 0 0 2.39 2.39 2.4 2.4 0 0 0 2.39-2.39z"/></svg>
